X:1
T:Title
%%score { ( 1 3 ) | ( 2 4 ) }
L:1/8
M:4/4
K:G
V:1 treble nm="Grand Piano"
V:3 treble 
V:2 treble 
V:4 treble 
V:1
 z4 z2[Q:1/4=112] D2 | B2 B2 A2 G2 | E2 [CEG]2 [B,D]2 [DGB]2 | [DGd]3 [DGB] [B,DG]4 | %4
[M:3/4] [CFA]6 |[M:1/4] [B,D]2 |[M:4/4] [DGB]2 [DGB]2 [CDA]2 [B,DG]2 | %7
 [G,CE]2 [CEG]2 [B,D]2 [DGB]2 | [DFd]3 [CDF] [CDF]4 |[M:3/4] [B,DG]6 |[M:1/4] D2 |[M:4/4] G3 G A4 | %12
 B6 G2 | B3 B c4 | d6 d2 |[M:9/8] e2 e- e d2- d [DG]2 | [DFc]2 [Fc]- [Fc] [DGB]2- [DGB] [G,D]2 | %17
[M:4/4] [DGB]3 [DGB] [FA]4 |[M:3/4] [B,DG]6 |] %19
V:2
 z4 z2 [G,B,]2 | [G,DG]2 [G,DG]2 [G,CD]2 [G,B,D]2 | [C,G,C]2 C,2 G,,2 G,2 | B,3 G, G,4 | %4
[M:3/4] D,6 |[M:1/4] G,2 |[M:4/4] G,2 G,2 G,2 G,2 | C,2 C,2 G,,2 G,2 | D,3 D, D,4 |[M:3/4] G,,6 | %10
[M:1/4] [G,B,]2 |[M:4/4] [G,B,D]3 [G,B,D] [D,CD]4 | [G,B,D]6 [B,D]2 | [G,DG]3 [G,DG] [A,DF]4 | %14
 [B,DG]6 [B,DG]2 |[M:9/8] [CEc]2 [CEc]- [CEc] [B,DB]2- [B,DB][K:bass] B,,2 | %16
 A,,2 [D,A,]- [D,A,] G,,2- G,, B,,2 |[M:4/4] D,3 D, z2 C2 |[M:3/4] G,,6 |] %19
V:3
 x8 | x8 | x8 | x8 |[M:3/4] x6 |[M:1/4] x2 |[M:4/4] x8 | x8 | x8 |[M:3/4] x6 |[M:1/4] x2 | %11
[M:4/4] x8 | x8 | x8 | x8 |[M:9/8] x9 | x9 |[M:4/4] z4 D2 z2 |[M:3/4] x6 |] %19
V:4
 x8 | x8 | x8 | x8 |[M:3/4] x6 |[M:1/4] x2 |[M:4/4] x8 | x8 | x8 |[M:3/4] x6 |[M:1/4] x2 | %11
[M:4/4] x8 | x8 | x8 | x8 |[M:9/8] x7[K:bass] x2 | x9 |[M:4/4] z4 D,4 |[M:3/4] x6 |] %19

